X:1
T:Magnificat septimi toni - Lasso
T:#
%%score [ 1 2 3 4 ]
L:1/8
Q:1/4=130
M:none
K:C
V:1 treble nm="Soprano" snm="S"
V:2 treble nm="Alto" snm="A"
V:3 treble-8 nm="Tenor" snm="T"
V:4 treble nm="Bass" snm="B"
V:1
 z14 | z18 ||[K:Bb][K:treble][Q:1/4=200][Q:1/4=200][Q:1/4=200][Q:1/4=200] c8 d4 e4- | %3
w: ||Et ex- ul\-|
 e4 (c6 F2 f4- | f2 ed e4) c4 B4- | B4 B4 B4 (B4- | B2 AG A2 B2 c8) |[M:4/2] =B4 B4 (c6 _B2 | %8
w: * ta\- * *|* * * * vit spi\-|* ri- tus me\-||us in De\- *|
 _A2 G2 A4) G8 | A8 A4 B4 | A4 (G8 ^F4) | G16 ||[Q:1/4=130][Q:1/4=130][Q:1/4=130][Q:1/4=130] z26 | %13
w: * * * o|sa- lu- ta-|ri me\- *|o.||
 z20 ||[M:4/2][Q:1/4=200][Q:1/4=200][Q:1/4=200][Q:1/4=200] c8 d4 =e4 | f4 f2 f2 d4 c2 c2 | %16
w: |Qui- a fe-|cit mi- hi ma- gna, qui|
 e4 (d6 c2 c4) | d8 z4 c4 | c4 d4 c4 B4 | A8 G8- | G16 || %21
w: po- tens * *|est, et|san- ctum no- men|e- ius.||
[Q:1/4=130][Q:1/4=130][Q:1/4=130][Q:1/4=130] z28 | z16 || %23
w: ||
[M:4/2][Q:1/4=200][Q:1/4=200][Q:1/4=200][Q:1/4=200] c4 c2 c2 =B4 c4 | A4 c4 d6 d2 | c8 c8 | %26
w: Fe- cit po- ten- ti-|am in bra- chi-|o su-|
 =B4 B4 c4 c4 | z2 c2 c4 c4 z2 c2 | c4 c4 z2 B4 A2 | G4 e4 d8 | =B16 || %31
w: o: di- sper- sit|su- per- bos, su-|per- bos men- te|cor- dis su-|i.|
[Q:1/4=130][Q:1/4=130][Q:1/4=130][Q:1/4=130] z24 | z18 || %33
w: ||
[M:4/2][Q:1/4=200][Q:1/4=200][Q:1/4=200][Q:1/4=200] G4 G2 G2 G4 A4 | B4 B2 B2 A4 B4 | %35
w: E- su- ri- en- tes|im- ple- vit bo- nis:|
 z2 d2 d2 d2 c2 f2 =e2 e2 | f2 c2 d2 B2 A2 (G4 ^F2) | G16 || %38
w: et di- vi- tes, et di- vi-|tes di- mi- sit i- na\- *|nes.|
[Q:1/4=130][Q:1/4=130][Q:1/4=130][Q:1/4=130] z28 | z22 || %40
w: ||
[M:4/2][Q:1/4=200][Q:1/4=200][Q:1/4=200][Q:1/4=200] z16 | z16 | z16 | z16 | z16 | z16 | %46
w: ||||||
[M:4/2] z16 | z16 | z16 | z16 | z16 | z16 | z16 |[Q:1/4=130][Q:1/4=130][Q:1/4=130][Q:1/4=130] z24 | %54
w: ||||||||
 z18 ||[M:4/2][Q:1/4=200][Q:1/4=200][Q:1/4=200][Q:1/4=200] c8 =B4 c4 | c8 c6 c2 | d2 d2 e4 d4 B4- | %58
w: |Si- cut e-|rat in prin-|ci- pi- o, et nunc,|
 B4 B4 G8 | ^F8 z4 G4- | %60
w: * et sem-|per, et|
 G2 G2[Q:1/4=198] A2[Q:1/4=196] A2[Q:1/4=193] c4[Q:1/4=189] B2[Q:1/4=187] B2 | %61
w: * in sae- cu- la sae- cu-|
[Q:1/4=184] G4[Q:1/4=181] G2[Q:1/4=178] (G4[Q:1/4=175] ^F[Q:1/4=174]=E[Q:1/4=171] F4) | %62
w: lo- rum, A\- * * *|
[Q:1/4=170] G16 |] %63
w: men.|
V:2
 z14 | z18 ||[K:Bb][K:treble] G16 | E4 E4 _A8 | G8 G8- | G4 F4 F8- | F4 (F6 ED E2 F2) | %7
w: ||Et|ex- ul- ta-|vit spi\-|* ri- tus|* me\- * * * *|
[M:4/2] G8 E4 E4 | (F2 C2 F6 =ED E4) | F4 F8 G4 | F4 D4 (E4 D4) | =B,16 || z26 | z20 || %14
w: * us in|De\- * * * * *|o sa- lu-|ta- ri me\- *|o.|||
[M:4/2] G8 G4 G4 | A4 B2 F2 B4 A4 | B4 B4 G8 | B8 A8 | A4 B4 G8 | F8 E8 | D16 || z28 | z16 || %23
w: Qui- a fe-|cit mi- hi ma- gna,|qui po- tens|est, et|san- ctum no-|men e-|ius.|||
[M:4/2] G4 G2 G2 G4 G4 | F4 A4 B6 B2 | _A4 (G6 FE F4) | G4 G4 _A4 G4 | z2 G2 G4 _A4 z2 A2 | %28
w: Fe- cit po- ten- ti-|am in bra- chi-|o su\- * * *|o: di- sper- sit|su- per- bos, su-|
 _A4 A4 G4 F4 | D2 D2 (G6 ^F=E F4) | G16 || z24 | z18 ||[M:4/2] E4 E2 E2 D4 F4 | G4 G2 G2 F4 F4 | %35
w: per- bos men- te|cor- dis su\- * * *|i.|||E- su- ri- en- tes|im- ple- vit bo- nis:|
 z2 B2 B2 B2 A4 G4 | C4 F4 E4 D4 | =B,16 || z28 | z22 ||[M:4/2] z16 | z16 | z16 | z16 | z16 | z16 | %46
w: et di- vi- tes di-|mi- sit i- na-|nes.|||||||||
[M:4/2] z16 | z16 | z16 | z16 | z16 | z16 | z16 | z24 | z18 ||[M:4/2] G8 G4 A4 | G4 A6 A2 A2 A2 | %57
w: |||||||||Si- cut e-|rat in prin- ci- pi-|
 B4 B8 G4 | F8 E8 | D8 =E6 E2 | =E2 E2 F4 F4 G4 | E4 D4 D8 | =B,16 |] %63
w: o, et nunc,|et sem-|per, et in|sae- cu- la sae- cu-|lo- rum, A-|men.|
V:3
[K:Bb]"^Magnificat septimi toni""^Orlando di Lasso\n(1530-94)" B2 A2 B2 c2 c2 c4 | %1
w: Ma\- * gni\- * fi- cat|
w: |
 c4 d2 c2 B2 B2 A2 G4 || (c8 B8) | c4 c4 c8 | c8 e8 | d4 d4 (d8 | c8) c8 | %7
w: anima me- a Do- mi- num. *|Et *|ex- ul- ta-|vit spi-|ri- tus me\-|* us|
w: ||||||
[M:4/2][K:treble-8] d8 z4 c4 | c8 c4 c4- | c4 c4 d8 | c4 B4 (A8 | G16) || %12
w: * in|De- o sa\-|* lu- ta-|ri me- o.||
w: |||||
 B2 A2 B2 c2 c8 e2 d2 c2 d4 | c8 d2 c2 B2 A2 G4 ||[M:4/2][K:treble-8] c8 =B4 c4 | c4 d2 d2 f4 f4 | %16
w: Qui\- * a * ~respexit~humilitatem~an- cil- lae su- ae:|ecce~enim~ex~hoc~ * * * * *|Qui- a fe-|cit mi- hi ma- gna,|
w: |beatam~me~dicent~omnes~gene- ra- ti- o- nes. *|||
 g4 f4 e8 | f8 f8 | f4 f4 e8 | c8 c8 | =B16 || B2 A2 B2 c2 c8 e2 d2 c2 d2 d4 | c4 d2 c2 B2 A2 G4 || %23
w: qui po- tens|est, et|san- ctum no-|men e-|ius.|~Et * mi\- * sericordia~eius~a~progenie in pro- ge- ni- es|timen- ti- bus- e- um. *|
w: |||||||
[M:4/2][K:treble-8] c4 e2 e2 d4 e4 | c4 f4 f4 g4 | e8 c8 | d4 d4 f4 e2 e2 | e4 e4 z2 e2 e4 | %28
w: Fe- cit po- ten- ti-|am in bra- chi-|o su-|o: di- sper- sit su-|per- bos, su- per-|
w: |||||
 e8 e4 c4 | =B4 c4 A8 | G16 || B2 A2 B2 c2 c4 e2 d2 d2 c2 d4 | c4 d2 c2 B2 B2 A2 G4 || %33
w: bos men- te|cor- dis su-|i.|~De\- * po\- * suit~po- ten- tes de se- de,|et~exal- ta- vit hu- mi- les. *|
w: |||||
[M:4/2][K:treble-8] c4 c2 c2 =B4 c4 | e4 e2 e2 c4 d4 | z2 f2 f2 f2 f2 c2 c2 c2 | %36
w: E- su- ri- en- tes|im- ple- vit bo- nis:|et di- vi- tes, et di- vi-|
w: |||
 A2 A2 B2 d2 c4 A4 | G16 || B2 A2 B2 c2 c8 e2 d2 d2 c2 d4 | c8 d2 c2 c2 B2 A2 G4 || %40
w: tes di- mi- sit i- na-|nes.|Su\- * sce\- * pit~Israel pu- e- rum su- um,|recordatus~miseri- cor- di- ae su- ae. *|
w: ||||
[M:4/2][K:treble-8]"^Duo" z8 c8 | (B8 c8) | z4 c4 c4 c4 | c8 z4 c4 | e8 d4 (G2 A2 | B2 c2 d8 c4) | %46
w: Si-|cut *|lo- cu- tus|est ad|pa- tres no\- *||
w: ||||||
 d8 z8 | c12 c4 | c8 z4 c4 | c2 c2 c4 c8 | c8 d8 | c4 B4 A8 | G16 | %53
w: stros,|A- bra-|ham, et|se- mi- ni e-|ius in|sae- cu- la.||
w: |||||||
 B2 A2 B2 c2 c2 e2 d2 d2 c2 d2 d4 | c4 d2 c2 c2 B2 A2 G4 ||[M:4/2][K:treble-8] c8 d4 f4 | %56
w: Glo\- * ri\- * a Pa- tri, et Fi- li- o,|et~Spi- ri- tu- i San- cto: *|Si- cut e-|
w: |||
 =e4 f6 f2 f2 f2 | f4 g4 f4 e4 | (d8 c8) | A8 c6 c2 | c2 c2 c4 c4 d4 | c4 B4 A8 | G16 |] %63
w: rat in prin- ci- pi-|o, et nunc, et|sem\- *|per, et in|sae- cu- la sae- cu-|lo- rum, A-|men.|
w: |||||||
V:4
 z14 | z18 ||[K:Bb][K:bass] C,8 G,4 E,4 | (_A,6 G,2 F,8) | C,4 (C,6 D,2 E,2 F,2 | %5
w: ||Et ex- ul-|ta\- * *|vit spi\- * * *|
 G,2 A,2 B,8) B,,4 | F,8 _A,8 |[M:4/2] G,4 G,4 _A,8 | F,8 z4 C,4 | F,8 D,4 G,,4 | %10
w: * * * ri-|tus me-|us in De-|o sa-|lu- ta- ri|
 (A,,4 B,,4 C,4 D,4) | G,,16 || z26 | z20 ||[M:4/2] C,8 G,4 C,4 | F,4 B,2 B,2 B,4 F,4 | %16
w: me\- * * *|o.|||Qui- a fe-|cit mi- hi ma- gna,|
 E,4 B,4 C8 | B,4 B,,4 F,8- | F,4 B,,4 C,4 E,4 | (F,8 C,8) | G,16 || z28 | z16 || %23
w: qui po- tens|est, et san\-|* ctum no- men|e\- *|ius.|||
[M:4/2] C4 C2 C2 G,4 C4 | F,4 F,4 B,4 G,4 | C8 _A,8 | G,4 G,4 F,4 C,2 C2 | C4 C4 z2 _A,2 A,4 | %28
w: Fe- cit po- ten- ti-|am in bra- chi-|o su-|o: di- sper- sit su-|per- bos, su- per-|
 _A,8 E,4 F,4 | G,4 C,4 D,8 | G,,16 || z24 | z18 ||[M:4/2] C,4 C,2 C,2 G,4 F,4 | %34
w: bos men- te|cor- dis su-|i.|||E- su- ri- en- tes|
 E,4 E,2 E,2 F,4 B,,4 | z2 B,2 B,2 B,2 F,2 F,2 C,2 C,2 | F,2 F,2 B,,2 B,,2 C,4 D,4 | G,,16 || z28 | %39
w: im- ple- vit bo- nis:|et di- vi- tes, et di- vi-|tes di- mi- sit i- na-|nes.||
 z22 ||[M:4/2] G,8 (F,8 | G,8) z4 F,4 | F,4 F,4 F,8 | z4 F,4 _A,8 | G,4 (E,2 F,2 G,2 A,2 B,2 A,2 | %45
w: |Si- cut|* lo-|cu- tus est|ad pa-|tres no\- * * * * *|
 G,2 F,2 F,2 E,D, E,8) | D,8 F,8- | F,4 F,4 F,8 | z4 C,4 C,2 C,2 C,4 | _A,4 A,2 A,2 A,4 (F,4- | %50
w: |stros, A\-|* bra- ham,|et se- mi- ni,|et se- mi- ni, e\-|
 F,2 E,D, E,2 F,2) B,,4 B,4 | (A,4 G,8) ^F,4 | G,16 | z24 | z18 ||[M:4/2] C,8 G,4 F,4 | %56
w: * * * * * ius in|sae\- * cu-|la.|||Si- cut e-|
 C,4 F,6 F,2 F,2 F,2 | B,4 E,4 B,4 E,4 | B,,8 C,8 | D,8 C,6 C,2 | C,2 C,2 F,4 _A,4 G,4 | %61
w: rat in prin- ci- pi-|o, et nunc, et|sem\- *|per, et in|sae- cu- la sae- cu-|
 C,4 G,4 D,8 | G,,16 |] %63
w: lo- rum, A-|men.|

